X:1
T:Once More a-Lumbering Go
M:4/4
L:1/8
K:D
 z4 z2 A,2| DD DD D F2 D| EA, A,G F3 F| B,B, B,B, GF ED| ED CB, A,3 F/2F/2|\
 GF ED D/2D/2 D2 D/2D/2| ED CB, A,3 A,| D3/2 D/2 DD DF ED| E3/2 A,/2 A,A, A,2 A,A,|\
 DD DE F3 A| AF FA GF ED| FE DC D4-| D2 z2 z4|
